X:1
T:Niel Gow's Lament
T:Niel Gow's Lament
T:for the Death of his Second Wife
T:N. Gow (1727–1807)
C:N. Gow (1727–1807)
%%score 1 ( 2 3 ) 4
L:1/8
Q:1/8=90
M:6/8
K:C
V:1 treble+8 transpose=-12 nm="Flauto dolce" snm="Fl. dol."
V:2 tab stafflines=6 strings=E2,A2,D3,G3,B3,E4 nm="Chitarra classica" snm="Chit. cl."
V:3 tab stafflines=6 strings=E2,A2,D3,G3,B3,E4 
V:4 bass nm="Violoncello" snm="V-c."
V:1
 c/A/ |: G>Ac c>dc | deg a2 c' | gec d>cd | edA A2 c/A/ | G>Ac c>dc | deg c'2 b/a/ | gec A2 G |1 %8
 Acc c2 c/A/ :|2 Acc c2 g/4a/4b/ || c'e'c' d'bg | a/g/a/b/c' a/g/f/e/d/c/ | d>cd ecA | %13
 Gcc c2 g/4a/4b/ | c'e'c' d'bg | a/g/a/b/c' a/g/f/e/d/c/ | d>cd ecA | Gcc c2 g/4a/4b/ | %18
 c'e'c' d'bg | a/g/a/b/c' a/g/f/e/d/c/ | e/c/g/e/c'/g/ a/g/f/e/d/c/ | edd d2 c/A/ | G>Ac c>dc | %23
 deg c'2 b/a/ | gec A2 G | Acc c2 z |] %26
V:2
 x |: [!4!E,!3!G,!2!C]2 [!4!F,!3!A,!2!C] [!4!E,!3!A,!2!C]3 | %2
 [!5!B,,!4!D,!3!G,!2!D]3 [!4!F,!3!A,!2!C]3 | [!4!E,!3!G,!2!C]3 [!5!B,,!4!D,!3!G,!2!D]3 | %4
 [!3!C!2!E!1!A]2 [!3!G,!2!B,!1!G] [!4!F,!3!A,!2!C!1!F]3 | %5
 [!4!E,!3!G,!2!C]2 [!4!F,!3!A,!2!C] [!4!E,!3!A,!2!C]3 | %6
 [!5!B,,!4!D,!3!G,!2!D][!2!C!1!E][!3!G,!2!D] !arpeggio![!4!F,!3!A,!2!C]3 | %7
 [!4!E,!3!G,!2!C]3 [!4!F,!3!A,!2!C]!2!D!arpeggio![!3!A,!2!C!1!E] |1 %8
 [!5!B,,!4!D,!3!G,!2!D!1!G]2 !1!F [!4!E,!3!G,!2!C]3 :|2 %9
 [!5!B,,!4!D,!3!G,!2!D!1!G]2 !1!F !arpeggio![!4!E,!3!G,!2!C]3 || %10
 x/ !4!E,/!3!A,/!4!E,/!2!C/!3!A,/ x/ !3!G,/!2!D/!3!G,/!1!G/!2!D/ | %11
 x/ !5!C,/!4!F,/!3!A,/!2!C/!1!F/ x/ !3!A,/!2!D/!3!A,/!1!F/!2!D/ | %12
 x/ !5!B,,/!4!D,/!3!G,/!2!D/!3!G,/ x/ !4!E,/!3!A,/!2!C/!1!E/!2!C/ | %13
 x/ !5!C,/!4!E,[!4!F,!3!A,!2!C] [!4!E,!3!G,!2!C]2 !arpeggio![!4!D,!3!G,!2!D] | %14
 x/ !4!E,/!3!A,/!4!E,/!2!C/!3!A,/ x/ !3!G,/!2!D/!3!G,/!1!G/!2!D/ | %15
 x/ !5!C,/!4!F,/!3!A,/!2!C/!1!F/ x/ !3!A,/!2!D/!3!A,/!1!F/!2!D/ | %16
 x/ !5!B,,/!4!D,/!3!G,/!2!D/!3!G,/ x/ !4!E,/!3!A,/!2!C/!1!E/!2!C/ | %17
 x/ !5!C,/!4!E,[!4!F,!3!A,!2!C] [!4!E,!3!G,!2!C]2 !arpeggio![!4!D,!3!G,!2!D] | %18
 x/ !4!E,/!3!A,/!4!E,/!2!C/!3!A,/ x/ !3!G,/!2!D/!3!G,/!1!G/!2!D/ | %19
 x/ !5!C,/!4!F,/!3!A,/!2!C/!1!F/ x/ !3!A,/!2!D/!3!A,/!1!F/!2!D/ | %20
 [!5!C,!4!E,!3!G,!2!C][!5!B,,!4!D,!3!G,!2!D][!5!A,,!4!E,!3!A,!2!C!1!E] [!5!A,,!3!A,!2!D!1!A]3 | %21
 x/ !5!B,,/!4!D,/!3!G,/!2!D/!3!G,/ !1!G/!4!D,/!3!G,/!2!D/!1!F | %22
 x/ !4!E,/!3!G,/!4!E,/!2!C/!3!G,/ x/ !4!E,/!3!A,/!4!E,/!2!C/!3!A,/ | %23
 x/ !4!D,/!3!G,/!4!D,/!2!D/!3!G,/ x/ !5!C,/!4!F,/!3!A,/!2!C/!1!F/ | %24
 !1!E/!4!E,/!3!G,/!4!E,/!2!C/!3!G,/ x/ !4!F,/!3!A,/!4!F,/!2!C/!3!A,/ | %25
 !1!G!1!F!1!E !arpeggio![!4!E,!3!G,!2!C]2 x |] %26
V:3
 x |: !5!C,2 !6!F,, !5!A,,3 | !6!G,,3 !6!F,,3 | !5!C,3 !6!G,,3 | !5!A,,3 !6!F,,3 | %5
 !5!C,2 !6!F,, !5!A,,3 | !6!G,,3 !6!F,,3 | !5!C,3 !6!F,,3 |1 !6!G,,3 !5!C,3 :|2 !6!G,,3 !5!C,3 || %10
 [!5!C,!3!A,!2!C!1!E]3 [!6!G,,!5!B,,!4!D,!2!B,]3 | [!6!F,,!4!F,!3!A,!2!C]3 [!4!D,!2!D]3 | %12
 [!6!G,,!4!D,!3!G,!2!D]3 [!5!A,,!3!A,!2!C!1!E]3 | [!6!F,,!3!G,!2!C]2 !6!G,, !5!C,2 !5!B,, | %14
 [!5!C,!3!A,!2!C!1!E]3 [!6!G,,!5!B,,!4!D,!2!B,]3 | [!6!F,,!4!F,!3!A,!2!C]3 [!4!D,!2!D]3 | %16
 [!6!G,,!4!D,!3!G,!2!D]3 [!5!A,,!3!A,!2!C!1!E]3 | [!6!F,,!3!G,!2!C]2 !6!G,, !5!C,2 !5!B,, | %18
 [!5!C,!3!A,!2!C!1!E]3 [!6!G,,!5!B,,!4!D,!2!B,]3 | [!6!F,,!4!F,!3!A,!2!C]3 [!4!D,!2!D]3 | %20
 !6!G,,3 !4!D,3 | !6!G,,3 !6!G,,2 !6!F,, | [!5!C,!3!G,!2!C]3 [!5!A,,!3!A,!2!C!1!E]3 | %23
 [!6!G,,!3!G,!2!D!1!G]3 [!6!F,,!3!A,!2!C!1!F]3 | [!5!C,!3!G,!2!D]3 [!6!F,,!3!A,!2!C!1!F]3 | %25
 [!6!G,,!3!G,!2!D]3 !5!C,2 x |] %26
V:4
 z |: C,3 A,,3 | G,,3 F,,3 | C,3 G,,3 | A,,3 F,,E,,D,, | C,3 A,,3 | G,,E,,C,, F,,3 | C,3 F,,3 |1 %8
 G,,2 F,, C,2 G,, :|2 G,,3 C,2 z || C,3 G,,3 | F,,3 D,C,A,, | G,,3 A,,3 | F,,2 G,, C,2 B,, | %14
 C,3 G,,3 | F,,3 D,C,A,, | G,,3 A,,3 | F,,2 G,, C,2 B,, | C,3 G,,3 | F,,3 D,,F,,A,, | %20
 C,G,,E,, F,,2 A,, | G,,3 G,,2 F,, | C,3 A,,3 | G,,E,,C,, F,,3 | C,3 F,,3 | G,,3 C,2 z |] %26

